svgs/messages.svg

<svg width="192" height="192" viewBox="0 0 192 192" fill="none" xmlns="http://www.w3.org/2000/svg"><path d="M18.5 46v-6a6 6 0 0 0-4.243 10.243L18.5 46ZM42 52h104V40H42v12Zm118 14v60h12V66h-12Zm-14 74H62v12h84v-12ZM42 40H18.5v12H42V40Zm6 86V76.127H36V126h12ZM14.257 50.243l18.814 18.813 8.485-8.485-18.813-18.814-8.486 8.486ZM48 76.127a22 22 0 0 0-6.444-15.556l-8.485 8.485A10 10 0 0 1 36 76.127h12ZM62 140c-7.732 0-14-6.268-14-14H36c0 14.359 11.64 26 26 26v-12Zm98-14c0 7.732-6.268 14-14 14v12c14.359 0 26-11.641 26-26h-12Zm-14-74c7.732 0 14 6.268 14 14h12c0-14.36-11.641-26-26-26v12Z" fill="#000"/><path d="M66 84h76m-76 24h44" stroke="#000" stroke-width="12" stroke-linecap="round" stroke-linejoin="round"/></svg>

<svg id="vector" xmlns="http://www.w3.org/2000/svg" width="192" height="192" viewBox="0 0 192 192"><path fill="#000000" d="M18.5,46V40C16.073,40 13.885,41.462 12.957,43.704C12.028,45.946 12.541,48.527 14.257,50.243L18.5,46ZM42,52H146V40H42V52ZM160,66V126H172V66H160ZM146,140H62V152H146V140ZM42,40H18.5V52H42V40ZM48,126V76.127H36V126H48ZM14.257,50.243L33.071,69.056L41.556,60.571L22.743,41.757L14.257,50.243ZM48,76.127C48,70.293 45.682,64.697 41.556,60.571L33.071,69.056C34.946,70.932 36,73.475 36,76.127H48ZM62,140C54.268,140 48,133.732 48,126H36C36,140.359 47.641,152 62,152V140ZM160,126C160,133.732 153.732,140 146,140V152C160.359,152 172,140.359 172,126H160ZM146,52C153.732,52 160,58.268 160,66H172C172,51.641 160.359,40 146,40V52Z" id="path_0"/><path fill="#00000000" d="M66,84H142" stroke-linejoin="round" stroke-width="12" stroke="#000000" stroke-linecap="round" id="path_1"/><path fill="#00000000" d="M66,108H110" stroke-linejoin="round" stroke-width="12" stroke="#000000" stroke-linecap="round" id="path_2"/></svg>
